X: 32442
T: Pippa Sandford's
R: jig
M: 6/8
K: Dmajor
|:A,|D>ED F>EF|BAF E>DE|FAB A>FD|FED E>CA,|
D>ED F>ED|FAB A>dB|AFD E>DB,|A,DD D2:|
|:A|B>cB Bcd|c>BA AFE|A>BA A>cd|ecA c>BA|
F2 B Bcd|c>BA Bcd|edB AFD|E>DC D2:|

